public/icons/icon-plus.svg

<svg width="24" height="24" viewBox="0 0 24 24" fill="none" xmlns="http://www.w3.org/2000/svg">
<path d="M18.4933 14.0821L12.6463 14.0773L12.6414 20.0067L10.3081 20.0048L10.3129 14.0754L4.49334 14.0706L4.49509 11.9569L10.3147 11.9617L10.3196 6.0048L12.6529 6.00673L12.648 11.9636L18.4951 11.9684L18.4933 14.0821Z" fill="#273D63"/>
</svg>

<svg viewBox="0 0 24 24" fill="none" xmlns="http://www.w3.org/2000/svg"><path d="m18.493 14.082-5.847-.005-.005 5.93-2.333-.002.005-5.93-5.82-.004.002-2.114 5.82.005.005-5.957 2.333.002-.005 5.957 5.847.004-.002 2.114z" fill="#273D63"/></svg>
